modules/cstl-admin/grunt/src/img/icon-add-user-selected.svg

<?xml version="1.0" encoding="utf-8"?>
<!DOCTYPE svg PUBLIC "-//W3C//DTD SVG 1.1//EN" "http://www.w3.org/Graphics/SVG/1.1/DTD/svg11.dtd">
<svg version="1.1" id="Calque_1" xmlns="http://www.w3.org/2000/svg" xmlns:xlink="http://www.w3.org/1999/xlink" x="0px" y="0px"
	 width="14px" height="12px" viewBox="0 0 14 12" enable-background="new 0 0 14 12" xml:space="preserve">
<path fill="#717171" d="M3.32,4.41c0.19,0.63,0.64,1.02,0.64,1.02L3.95,6.45c0,0-0.25,0.15-1.31,0.59C1.58,7.48,1,7.99,0.68,8.49
	C0.4,8.93,0,10.86,0,10.86h5.28h5.28c0,0-0.3-1.85-0.59-2.3c-0.32-0.5-1-1.08-2.05-1.52C6.87,6.6,6.62,6.45,6.62,6.45L6.61,5.43
	c0.16-0.08,0.45-0.39,0.63-1c0,0,0.2-0.67,0.22-1.37C7.46,2.74,7.42,1.9,7.4,1.68C7.32,0.87,6.52,0.01,5.28,0.01
	c-1.23,0-2.04,0.86-2.11,1.67C3.15,1.9,3.08,2.83,3.1,3.12C3.13,3.62,3.32,4.41,3.32,4.41z"/>
<polygon fill="#3C3C3B" points="14,7.9 11.54,7.9 11.54,5.43 9.9,5.43 9.9,7.9 7.44,7.9 7.44,9.54 9.9,9.54 9.9,12 11.54,12 
	11.54,9.54 14,9.54 "/>
</svg>

<?xml version="1.0" encoding="utf-8"?>
<!DOCTYPE svg PUBLIC "-//W3C//DTD SVG 1.1//EN" "http://www.w3.org/Graphics/SVG/1.1/DTD/svg11.dtd">
<svg version="1.1" id="Calque_1" xmlns="http://www.w3.org/2000/svg" xmlns:xlink="http://www.w3.org/1999/xlink" x="0px" y="0px"
	 width="14px" height="12px" viewBox="0 0 14 12" enable-background="new 0 0 14 12" xml:space="preserve">
<path fill="#717171" d="M3.3,4.4C3.5,5,4,5.4,4,5.4l0,1c0,0-0.2,0.1-1.3,0.6S1,8,0.7,8.5C0.4,8.9,0,10.9,0,10.9h5.3h5.3
	c0,0-0.3-1.8-0.6-2.3C9.7,8.1,9,7.5,7.9,7c-1-0.4-1.3-0.6-1.3-0.6l0-1c0.2-0.1,0.5-0.4,0.6-1c0,0,0.2-0.7,0.2-1.4
	c0-0.3,0-1.2-0.1-1.4C7.3,0.9,6.5,0,5.3,0C4,0,3.2,0.9,3.2,1.7c0,0.2-0.1,1.1-0.1,1.4C3.1,3.6,3.3,4.4,3.3,4.4z"/>
<polygon fill="#3C3C3B" points="14,7.9 11.5,7.9 11.5,5.4 9.9,5.4 9.9,7.9 7.4,7.9 7.4,9.5 9.9,9.5 9.9,12 11.5,12 11.5,9.5 14,9.5 
	"/>
</svg>
